src/assets/discord.svg

<?xml version="1.0" encoding="UTF-8" standalone="no"?>
<svg width="25px" height="28px" viewBox="0 0 25 28" version="1.1" xmlns="http://www.w3.org/2000/svg" xmlns:xlink="http://www.w3.org/1999/xlink">
    <!-- Generator: sketchtool 41 (35326) - http://www.bohemiancoding.com/sketch -->
    <title>49031F14-95E5-4A66-8B7A-611D7D9D0368</title>
    <desc>Created with sketchtool.</desc>
    <defs></defs>
    <g id="Landing-Page" stroke="none" stroke-width="1" fill="none" fill-rule="evenodd">
        <g id="Landing-Page-Final" transform="translate(-1211.000000, -799.000000)" fill="#52244F">
            <g id="Discord-Logo-Black" transform="translate(1211.000000, 799.000000)">
                <g id="Group">
                    <path d="M9.716,11.746 C8.918,11.746 8.288,12.446 8.288,13.3 C8.288,14.154 8.932,14.854 9.716,14.854 C10.514,14.854 11.144,14.154 11.144,13.3 C11.158,12.446 10.514,11.746 9.716,11.746 L9.716,11.746 Z M14.826,11.746 C14.028,11.746 13.398,12.446 13.398,13.3 C13.398,14.154 14.042,14.854 14.826,14.854 C15.624,14.854 16.254,14.154 16.254,13.3 C16.254,12.446 15.624,11.746 14.826,11.746 L14.826,11.746 Z" id="Shape"></path>
                    <path d="M21.63,0 L2.87,0 C1.288,0 0,1.288 0,2.884 L0,21.812 C0,23.408 1.288,24.696 2.87,24.696 L18.746,24.696 L18.004,22.106 L19.796,23.772 L21.49,25.34 L24.5,28 L24.5,2.884 C24.5,1.288 23.212,0 21.63,0 L21.63,0 Z M16.226,18.284 C16.226,18.284 15.722,17.682 15.302,17.15 C17.136,16.632 17.836,15.484 17.836,15.484 C17.262,15.862 16.716,16.128 16.226,16.31 C15.526,16.604 14.854,16.8 14.196,16.912 C12.852,17.164 11.62,17.094 10.57,16.898 C9.772,16.744 9.086,16.52 8.512,16.296 C8.19,16.17 7.84,16.016 7.49,15.82 C7.448,15.792 7.406,15.778 7.364,15.75 C7.336,15.736 7.322,15.722 7.308,15.708 C7.056,15.568 6.916,15.47 6.916,15.47 C6.916,15.47 7.588,16.59 9.366,17.122 C8.946,17.654 8.428,18.284 8.428,18.284 C5.334,18.186 4.158,16.156 4.158,16.156 C4.158,11.648 6.174,7.994 6.174,7.994 C8.19,6.482 10.108,6.524 10.108,6.524 L10.248,6.692 C7.728,7.42 6.566,8.526 6.566,8.526 C6.566,8.526 6.874,8.358 7.392,8.12 C8.89,7.462 10.08,7.28 10.57,7.238 C10.654,7.224 10.724,7.21 10.808,7.21 C11.662,7.098 12.628,7.07 13.636,7.182 C14.966,7.336 16.394,7.728 17.85,8.526 C17.85,8.526 16.744,7.476 14.364,6.748 L14.56,6.524 C14.56,6.524 16.478,6.482 18.494,7.994 C18.494,7.994 20.51,11.648 20.51,16.156 C20.51,16.156 19.32,18.186 16.226,18.284 L16.226,18.284 Z" id="Shape"></path>
                </g>
            </g>
        </g>
    </g>
</svg>

<svg xmlns="http://www.w3.org/2000/svg" width="25" height="28">
  <g fill="#52244F" fill-rule="evenodd">
    <path d="M9.72 11.75c-.8 0-1.43.7-1.43 1.55 0 .85.64 1.55 1.43 1.55.8 0 1.42-.7 1.42-1.55.02-.85-.63-1.55-1.42-1.55Zm5.1 0c-.8 0-1.42.7-1.42 1.55 0 .85.64 1.55 1.43 1.55.8 0 1.42-.7 1.42-1.55 0-.85-.63-1.55-1.42-1.55Z"/>
    <path d="M21.63 0H2.87A2.88 2.88 0 0 0 0 2.88v18.93c0 1.6 1.29 2.89 2.87 2.89h15.88L18 22.1l1.8 1.67 1.69 1.57L24.5 28V2.88c0-1.6-1.29-2.88-2.87-2.88Zm-5.4 18.28-.93-1.13c1.84-.52 2.54-1.67 2.54-1.67-.58.38-1.12.65-1.61.83a9.8 9.8 0 0 1-5.66.59 11.75 11.75 0 0 1-3.08-1.08l-.13-.07-.05-.04-.4-.24s.68 1.12 2.46 1.65l-.94 1.16c-3.1-.1-4.27-2.12-4.27-2.12 0-4.51 2.01-8.17 2.01-8.17 2.02-1.5 3.94-1.47 3.94-1.47l.14.17c-2.52.73-3.68 1.84-3.68 1.84s.3-.17.82-.41c1.5-.66 2.69-.84 3.18-.88a11.85 11.85 0 0 1 3.07-.06c1.33.16 2.75.55 4.21 1.35 0 0-1.1-1.05-3.49-1.78l.2-.23s1.92-.04 3.93 1.47c0 0 2.02 3.66 2.02 8.17 0 0-1.19 2.03-4.28 2.12Z"/>
  </g>
</svg>
